lib/svgs/palette.svg

<?xml version="1.0" encoding="UTF-8" standalone="no"?>
<svg width="20px" height="20px" viewBox="0 0 20 20" version="1.1" xmlns="http://www.w3.org/2000/svg" xmlns:xlink="http://www.w3.org/1999/xlink">
    <defs></defs>
    <g id="Icons" stroke="none" stroke-width="1" fill="none" fill-rule="evenodd">
        <g id="Web" transform="translate(-241.000000, -1418.000000)" fill="#000000">
            <g id="editor/palette" transform="translate(241.000000, 1418.000000)">
                <path d="M2,10.6 C2,6.38681097 5.38681097,3 9.6,3 C13.005908,3 16.0102696,5.2986391 16.9228402,8.52773489 C17.4732659,10.8644701 17.0758623,13.229968 14.9653179,14.3153909 C13.4814746,15.0123218 12.2381298,14.9261897 10.3465543,14.3389296 C8.74779336,13.8425769 8.44515507,13.813953 8.15184186,14.1659288 C8.13713495,14.1845045 8.1510036,14.3147191 8.29536775,14.7766493 C8.33255428,14.8956372 8.35361466,14.9651003 8.37553526,15.0433568 C8.56522663,15.720555 8.54745647,16.2366458 8.15184186,16.7113834 C7.60739253,17.5342129 6.18770841,17.4774256 5.24683168,16.8188119 C3.2148195,15.4174419 2,13.1186296 2,10.6 M3.2,10.6 C3.2,12.7229088 4.21992004,14.6529114 5.93154886,15.8333451 C6.39410978,16.1571199 7.06533474,16.1839689 7.19167891,15.9944526 C7.30864671,15.8487576 7.31371529,15.7015533 7.22001205,15.3670328 C7.20219917,15.3034408 7.18382345,15.2428325 7.14999951,15.1346041 C6.87602362,14.2579478 6.83673553,13.8890665 7.22238781,13.4070012 C7.99911152,12.4747453 8.56010116,12.5278044 10.7023547,13.1928902 C12.3332501,13.6992194 13.3105696,13.7669228 14.4359648,13.238676 C15.8856407,12.4926876 16.1930542,10.6628451 15.7614042,8.82833269 C15.0008385,6.13926789 12.4661813,4.2 9.6,4.2 C6.04955267,4.2 3.2,7.04955267 3.2,10.6 M12.7818182,8.72727273 C13.8160969,8.72727273 14.6545455,9.56572129 14.6545455,10.6 C14.6545455,11.6342787 13.8160969,12.4727273 12.7818182,12.4727273 C11.7475395,12.4727273 10.9090909,11.6342787 10.9090909,10.6 C10.9090909,9.56572129 11.7475395,8.72727273 12.7818182,8.72727273 M12.7818182,9.92727273 C12.4102812,9.92727273 12.1090909,10.228463 12.1090909,10.6 C12.1090909,10.971537 12.4102812,11.2727273 12.7818182,11.2727273 C13.1533552,11.2727273 13.4545455,10.971537 13.4545455,10.6 C13.4545455,10.228463 13.1533552,9.92727273 12.7818182,9.92727273 M10.6500122,5.66364857 C11.1194543,5.66364857 11.5000123,6.04420654 11.5000123,6.51364859 C11.5000123,6.98309065 11.1194543,7.36364862 10.6500122,7.36364862 C10.1805702,7.36364862 9.80001221,6.98309065 9.80001221,6.51364859 C9.80001221,6.04420654 10.1805702,5.66364857 10.6500122,5.66364857 M7.45000002,6.56361195 C7.91944207,6.56361195 8.30000005,6.94416992 8.30000005,7.41361197 C8.30000005,7.88305402 7.91944207,8.263612 7.45000002,8.263612 C6.98055797,8.263612 6.6,7.88305402 6.6,7.41361197 C6.6,6.94416992 6.98055797,6.56361195 7.45000002,6.56361195 M5.65001223,9.66364857 C6.11945428,9.66364857 6.50001225,10.0442065 6.50001225,10.5136486 C6.50001225,10.9830906 6.11945428,11.3636486 5.65001223,11.3636486 C5.18057018,11.3636486 4.80001221,10.9830906 4.80001221,10.5136486 C4.80001221,10.0442065 5.18057018,9.66364857 5.65001223,9.66364857" id="Shape"></path>
            </g>
        </g>
    </g>
</svg>

<svg xmlns="http://www.w3.org/2000/svg" viewBox="0 0 20 20">
    <path fill="#000" fill-rule="evenodd" d="M2 10.6A7.58 7.58 0 0 1 9.6 3a7.643 7.643 0 0 1 7.323 5.528c.55 2.336.153 4.702-1.958 5.787-1.484.697-2.727.611-4.618.024-1.6-.496-1.902-.525-2.195-.173-.015.019-.001.149.143.61.038.12.059.19.08.267.19.678.172 1.194-.223 1.668-.545.823-1.964.766-2.905.108A7.51 7.51 0 0 1 2 10.6m1.2 0a6.313 6.313 0 0 0 2.732 5.233c.462.324 1.133.351 1.26.161.117-.145.122-.292.028-.627a7.825 7.825 0 0 0-.07-.232c-.274-.877-.313-1.246.072-1.728.777-.932 1.338-.88 3.48-.214 1.631.506 2.609.574 3.734.046 1.45-.746 1.757-2.576 1.325-4.41A6.437 6.437 0 0 0 9.6 4.2a6.38 6.38 0 0 0-6.4 6.4m9.582-1.873a1.873 1.873 0 1 1 0 3.746 1.873 1.873 0 0 1 0-3.746m0 1.2a.673.673 0 1 0 0 1.346.673.673 0 0 0 0-1.346M10.65 5.664a.85.85 0 1 1 0 1.7.85.85 0 0 1 0-1.7m-3.2.9a.85.85 0 1 1 0 1.7.85.85 0 0 1 0-1.7m-1.8 3.1a.85.85 0 1 1 0 1.7.85.85 0 0 1 0-1.7"/>
</svg>
